X: 080408
T: Handsome Sally
S: Matt Molloy
N: many alternate names and related tunes
M: 4/4
Z: B.Black
L: 1/8
R: reel
K: Em
E2 BE GEBE |E2 BE AFDF |E2 BE GBdB | AFDE FEED :|
fedB A3 e |fedB AFDB |edef gfef | dBAG FD D2 :|
